X:163
T: Jenny's Wedding
R: reel
M: C|
L: 1/8
K: Dmaj
D2 (3FED AD (3FED|Adde fded|cAAB =c3d|eaag edcA|
D2FA dfed|cAAB cdeg|fdec d2cA|(3Bcd AG FDD2:|
|: d2fd adfd|ecAB cdec|d2fd adfd|eaag fddA|
d2fd adfd|(3Bcd ef g2fg|afge d2cA|(3Bcd AG FDD2:|

